X: 1371
T: Mihrican mı Değdi
C: İbrahim Bakır
O: Turkey
F: http://compmusic.upf.edu/node/140
N: muhayyer--turku--devrituran--mihrican_mi--yozgat
N: makam= muhayyer
N: form= turku
N: usul= devrituran = 7/16
M: 7/16
L: 1/16
K: C _2/4B ^3/4f  
Q: 1/4=144
%%MIDI tuningsystem comma53
z2 cd e2 ed d2 ge2d  | ee2d d2 dB c2 d2 ed  | \
w:   |   | 
d2 ec cc2B B2 c2 d2  | 
w:   | 
c2 cB B2 BA A2 cB c2  | B2 BA AA A2 A2 A2 AA  | \
w:   |   | 
A2 AA AA A2 A2 A2 AA  | 
w:   | 
z2 cd e2 ed d2 ge2d  | ee2d d2 dB c2 d2 ed  | \
w:   |   | 
d2 ec cc2B B2 c2 d2  | 
w:   | 
c2 cB B2 BA A2 cB c2  | B2 BA AA A2 A2 A2 AA  | \
w:   |   | 
A2 AA AA A2 A2 A2 AA  | 
w:   | 
z2 fg a2 a2 a2 ba3  | ga2a a4 ag ba3  | \
w:  Mih ri can  mı  değ di   |  gü lün  mü  *  sol *  du    | 
z2 fg aa3 ag ba3  | 
w:  Gel_ ağ la ma  ga *  rip   | 
z2 gg g3/2f/ ge fg af g2  | fg ag af ge fg af g2  | 
w:  bül bül_ ağ *  *  *  la *  ma    |  SAZ  | 
z2 fg gf2e e2 gf2e  | ee3 e3d d2 e4  | \
w:  Fe lek  baş tan  *  ba şa   |  ki mi  gül *  dür dü    | 
z2 ee dd ec c2 d2 e2  | 
w:  Gel_ ağ la ma  *  *  ga rip   | 
d2 dB c3B B2 c2 z2  | Bc2c dB3 A2 B2 c2  | \
w:  bül bül_ ağ *  *  la ma    |  Gel_ ağ la *  ma  ga rip   | 
B2 BA A4 A2 A4  | 
w:  bül bül_ ağ *  la ma    | 
A2 AA AA A2 A2 A2 AA  | z2 cd e2 ed d2 ge2d  | \
w:  SAZ  |  Fe lek  baş tan  *  ba şa   | 
ee2d d3B c2 d2 ed  | 
w:  ki mi  *  gül *  dür dü    | 
dd ec cc2B B2 c2 d2  | c2 cB B3A AA cB c2  | \
w:  Gel_ ağ *  *  la ma  *  ga rip   |  bül bül_ ağ *  *  la ma   | 
B2 BA A4 A2 A4  | 
w:  bül bül_ ağ *  la ma    | 
A2 AA AA A2 A2 A2 AA  | z2 cd e2 ed d2 ge2d  | \
w:  SAZ  |   | 
ee2d d2 dB c2 d2 ed  | 
w:   | 
d2 ec cc2B B2 c2 d2  | c2 cB B2 BA A2 cB c2  | \
w:   |   | 
B2 BA AA A2 A2 A2 AA  | 
w:   | 
A2 AA AA A2 A2 A2 AA  | z2 cd e2 ed d2 ge2d  | \
w:   |   | 
ee2d d2 dB c2 d2 ed  | 
w:   | 
d2 ec cc2B B2 c2 d2  | c2 cB B2 BA A2 cB c2  | \
w:   |   | 
B2 BA AA A2 A2 A2 AA  | 
w:   | 
A2 AA AA A2 A2 A2 AA  | z2 fg a2 a2 a2 ba3  | \
w:   |  Mih ri can  mı  değ di   | 
ga2a a4 ag ba3  | 
w:  gü lün  mü  *  sol *  du    | 
z2 fg aa3 ag ba3  | z2 gg g3/2f/ ge fg af g2  | 
w:  Gel_ ağ la ma  ga *  rip   |  bül bül_ ağ *  *  *  la *  ma    | 
fg ag af ge fg af g2  | z2 fg gf2e e2 gf2e  | 
w:  SAZ  |  Fe lek  baş tan  *  ba şa   | 
ee3 e3d d2 e4  | z2 ee dd ec c2 d2 e2  | \
w:  ki mi  gül *  dür dü    |  Gel_ ağ la ma  *  *  ga rip   | 
d2 dB c3B B2 c2 z2  | 
w:  bül bül_ ağ *  *  la ma    | 
Bc2c dB3 A2 B2 c2  | B2 BA A4 A2 A4  | \
w:  Gel_ ağ la *  ma  ga rip   |  bül bül_ ağ *  la ma    | 
A2 AA AA A2 A2 A2 AA  | 
w:  SAZ  | 
z2 cd e2 ed d2 ge2d  | ee2d d3B c2 d2 ed  | \
w:  Fe lek  baş tan  *  ba şa   |  ki mi  *  gül *  dür dü    | 
dd ec cc2B B2 c2 d2  | 
w:  Gel_ ağ *  *  la ma  *  ga rip   | 
c2 cB B3A AA cB c2  | B2 BA A4 A2 A4  | \
w:  bül bül_ ağ *  *  la ma   |  bül bül_ ağ *  la ma    | 
A2 AA AA A2 A2 A2 AA  | 
w:  SAZ  | 
|


